static/images/icon-comment.svg

<svg viewBox="0 0 18 18" xmlns="http://www.w3.org/2000/svg"><path d="m13.6665 16c-.1515 0-.3008-.0645-.4123-.1862l-2.7458-2.9955h-6.89182c-.89141 0-1.61658-.7911-1.61658-1.7636v-7.29172c0-.97188.72516-1.76298 1.61658-1.76298h10.76682c.8914 0 1.6166.7911 1.6166 1.76298v7.29172c0 .9725-.7252 1.7636-1.6166 1.7636h-.1334v2.5457c0 .2571-.1422.4892-.3599.5877-.0721.0328-.1482.0483-.2236.0483"/></svg>

<svg viewBox="0 0 18 18" xmlns="http://www.w3.org/2000/svg">
<path d="M13.6665 16C13.515 16 13.3657 15.9355 13.2542 15.8138L10.5084 12.8183H3.61658C2.72517 12.8183 2 12.0272 2 11.0547V3.76298C2 2.7911 2.72516 2 3.61658 2H14.3834C15.2748 2 16 2.7911 16 3.76298V11.0547C16 12.0272 15.2748 12.8183 14.3834 12.8183H14.25V15.364C14.25 15.6211 14.1078 15.8532 13.8901 15.9517C13.818 15.9845 13.7419 16 13.6665 16" />
</svg>
